public/icons/Instagram.svg

<svg width="256" height="256" viewBox="0 0 256 256" fill="none" xmlns="http://www.w3.org/2000/svg">
<rect width="256" height="256" rx="60" fill="url(#paint0_radial_206_683)"/>
<rect width="256" height="256" rx="60" fill="url(#paint1_radial_206_683)"/>
<path d="M128.009 28C100.851 28 97.4424 28.1188 86.7756 28.6042C76.1297 29.0917 68.8629 30.7771 62.5045 33.2501C55.9274 35.8042 50.3481 39.221 44.7898 44.7814C39.2272 50.3398 35.8105 55.919 33.248 62.4941C30.7688 68.8546 29.0813 76.1234 28.6021 86.7652C28.125 97.432 28 100.842 28 128.001C28 155.16 28.1208 158.558 28.6042 169.224C29.0938 179.87 30.7792 187.137 33.2501 193.495C35.8063 200.073 39.223 205.652 44.7835 211.21C50.3398 216.773 55.919 220.198 62.492 222.752C68.8546 225.225 76.1234 226.91 86.7673 227.398C97.4341 227.883 100.84 228.002 127.997 228.002C155.158 228.002 158.556 227.883 169.222 227.398C179.868 226.91 187.143 225.225 193.506 222.752C200.081 220.198 205.652 216.773 211.208 211.21C216.771 205.652 220.187 200.073 222.75 193.498C225.208 187.137 226.896 179.868 227.396 169.226C227.875 158.56 228 155.16 228 128.001C228 100.842 227.875 97.4341 227.396 86.7673C226.896 76.1213 225.208 68.8546 222.75 62.4962C220.187 55.919 216.771 50.3398 211.208 44.7814C205.646 39.2189 200.083 35.8022 193.5 33.2501C187.125 30.7771 179.854 29.0917 169.208 28.6042C158.541 28.1188 155.145 28 127.978 28H128.009ZM119.038 46.021C121.701 46.0169 124.672 46.021 128.009 46.021C154.71 46.021 157.874 46.1169 168.418 46.596C178.168 47.0419 183.46 48.671 186.985 50.0398C191.652 51.8523 194.979 54.019 198.477 57.5191C201.977 61.0191 204.143 64.3525 205.96 69.0192C207.329 72.54 208.96 77.8318 209.404 87.5819C209.883 98.1236 209.987 101.29 209.987 127.978C209.987 154.666 209.883 157.833 209.404 168.374C208.958 178.124 207.329 183.416 205.96 186.937C204.148 191.604 201.977 194.927 198.477 198.425C194.977 201.925 191.654 204.091 186.985 205.904C183.464 207.279 178.168 208.904 168.418 209.35C157.876 209.829 154.71 209.933 128.009 209.933C101.307 209.933 98.1424 209.829 87.6006 209.35C77.8505 208.9 72.5588 207.271 69.0317 205.902C64.365 204.089 61.0316 201.923 57.5316 198.423C54.0315 194.923 51.8648 191.598 50.0481 186.929C48.6794 183.408 47.0481 178.116 46.6044 168.366C46.1252 157.824 46.0294 154.658 46.0294 127.953C46.0294 101.249 46.1252 98.0986 46.6044 87.5569C47.0502 77.8068 48.6794 72.515 50.0481 68.99C51.8607 64.3233 54.0315 60.9899 57.5316 57.4899C61.0316 53.9899 64.365 51.8232 69.0317 50.0065C72.5567 48.6315 77.8505 47.0064 87.6006 46.5585C96.8257 46.1419 100.401 46.0169 119.038 45.996V46.021ZM181.389 62.6254C174.764 62.6254 169.389 67.9942 169.389 74.6213C169.389 81.2464 174.764 86.6214 181.389 86.6214C188.014 86.6214 193.389 81.2464 193.389 74.6213C193.389 67.9962 188.014 62.6212 181.389 62.6212V62.6254ZM128.009 76.6463C99.6487 76.6463 76.6547 99.6403 76.6547 128.001C76.6547 156.362 99.6487 179.345 128.009 179.345C156.37 179.345 179.356 156.362 179.356 128.001C179.356 99.6403 156.368 76.6463 128.007 76.6463H128.009ZM128.009 94.6674C146.418 94.6674 161.343 109.59 161.343 128.001C161.343 146.41 146.418 161.335 128.009 161.335C109.599 161.335 94.6757 146.41 94.6757 128.001C94.6757 109.59 109.599 94.6674 128.009 94.6674V94.6674Z" fill="white"/>
<defs>
<radialGradient id="paint0_radial_206_683" cx="0" cy="0" r="1" gradientUnits="userSpaceOnUse" gradientTransform="translate(68.0003 275.717) rotate(-90) scale(253.715 235.975)">
<stop stop-color="#FFDD55"/>
<stop offset="0.1" stop-color="#FFDD55"/>
<stop offset="0.5" stop-color="#FF543E"/>
<stop offset="1" stop-color="#C837AB"/>
</radialGradient>
<radialGradient id="paint1_radial_206_683" cx="0" cy="0" r="1" gradientUnits="userSpaceOnUse" gradientTransform="translate(-42.8814 18.4418) rotate(78.6806) scale(113.412 467.488)">
<stop stop-color="#3771C8"/>
<stop offset="0.128" stop-color="#3771C8"/>
<stop offset="1" stop-color="#6600FF" stop-opacity="0"/>
</radialGradient>
</defs>
</svg>

<svg xmlns="http://www.w3.org/2000/svg" width="256" height="256" fill="none"><rect width="256" height="256" fill="url(#a)" rx="60"/><rect width="256" height="256" fill="url(#b)" rx="60"/><path fill="#fff" d="M128.009 28c-27.158 0-30.567.119-41.233.604-10.646.488-17.913 2.173-24.271 4.646-6.578 2.554-12.157 5.971-17.715 11.531-5.563 5.559-8.98 11.138-11.542 17.713-2.48 6.36-4.167 13.63-4.646 24.271-.477 10.667-.602 14.077-.602 41.236s.12 30.557.604 41.223c.49 10.646 2.175 17.913 4.646 24.271 2.556 6.578 5.973 12.157 11.533 17.715 5.557 5.563 11.136 8.988 17.709 11.542 6.363 2.473 13.631 4.158 24.275 4.646 10.667.485 14.073.604 41.23.604 27.161 0 30.559-.119 41.225-.604 10.646-.488 17.921-2.173 24.284-4.646 6.575-2.554 12.146-5.979 17.702-11.542 5.563-5.558 8.979-11.137 11.542-17.712 2.458-6.361 4.146-13.63 4.646-24.272.479-10.666.604-14.066.604-41.225s-.125-30.567-.604-41.234c-.5-10.646-2.188-17.912-4.646-24.27-2.563-6.578-5.979-12.157-11.542-17.716-5.562-5.562-11.125-8.979-17.708-11.53-6.375-2.474-13.646-4.16-24.292-4.647-10.667-.485-14.063-.604-41.23-.604zm-8.971 18.021c2.663-.004 5.634 0 8.971 0 26.701 0 29.865.096 40.409.575 9.75.446 15.042 2.075 18.567 3.444 4.667 1.812 7.994 3.979 11.492 7.48 3.5 3.5 5.666 6.833 7.483 11.5 1.369 3.52 3 8.812 3.444 18.562.479 10.542.583 13.708.583 40.396s-.104 29.855-.583 40.396c-.446 9.75-2.075 15.042-3.444 18.563-1.812 4.667-3.983 7.99-7.483 11.488-3.5 3.5-6.823 5.666-11.492 7.479-3.521 1.375-8.817 3-18.567 3.446-10.542.479-13.708.583-40.409.583-26.702 0-29.867-.104-40.408-.583-9.75-.45-15.042-2.079-18.57-3.448-4.666-1.813-8-3.979-11.5-7.479s-5.666-6.825-7.483-11.494c-1.369-3.521-3-8.813-3.444-18.563-.479-10.542-.575-13.708-.575-40.413s.096-29.854.575-40.396c.446-9.75 2.075-15.042 3.444-18.567 1.813-4.667 3.983-8 7.484-11.5s6.833-5.667 11.5-7.483c3.525-1.375 8.819-3 18.569-3.448 9.225-.417 12.8-.542 31.437-.563zm62.351 16.604c-6.625 0-12 5.37-12 11.996 0 6.625 5.375 12 12 12s12-5.375 12-12-5.375-12-12-12zm-53.38 14.021c-28.36 0-51.354 22.994-51.354 51.355s22.994 51.344 51.354 51.344c28.361 0 51.347-22.983 51.347-51.344 0-28.36-22.988-51.355-51.349-51.355zm0 18.021c18.409 0 33.334 14.923 33.334 33.334 0 18.409-14.925 33.334-33.334 33.334s-33.333-14.925-33.333-33.334c0-18.411 14.923-33.334 33.333-33.334"/><defs><radialGradient id="a" cx="0" cy="0" r="1" gradientTransform="matrix(0 -253.715 235.975 0 68 275.717)" gradientUnits="userSpaceOnUse"><stop stop-color="#FD5"/><stop offset=".1" stop-color="#FD5"/><stop offset=".5" stop-color="#FF543E"/><stop offset="1" stop-color="#C837AB"/></radialGradient><radialGradient id="b" cx="0" cy="0" r="1" gradientTransform="rotate(78.681 -32.69 -16.937)scale(113.412 467.488)" gradientUnits="userSpaceOnUse"><stop stop-color="#3771C8"/><stop offset=".128" stop-color="#3771C8"/><stop offset="1" stop-color="#60F" stop-opacity="0"/></radialGradient></defs></svg>
